!!!COM: Gomółka, Mikołaj
!!!CDT: ~1535-after 1591
!!!OTL@POL: Wzywam Cię Boże
!!!OTL@LAT: Cum invocarem
!!!AGn: Motet; Psalm
!!!SCn: Gom2004
!!!SCn: Gom2004
!!!voices: 4
**kern	**kern	**kern	**kern
*staff4	*staff3	*staff2	*staff1
*Ivox	*Ivox	*Ivox	*Ivox
*I"Bassus	*I"Tenor	*I"Altus	*I"Cantus
*I'B	*I'T	*I'A	*I'C
*clefF4	*clefGv2	*clefGv2	*clefG2
*k[b-]	*k[b-]	*k[b-]	*k[b-]
*M2/1	*M2/1	*M2/1	*M2/1
*met(C|)	*met(C|)	*met(C|)	*met(C|)
=1-	=1-	=1-	=1-
1G	1B-	1d	1g
2E-	2B-	2e-	2g
2C	2c	[2g	2ee-i
=2	=2	=2	=2
1G	2d	4g]	1dd
.	.	4a	.
.	2g	2b-	.
2A	2e	2a	2cc#
2D	4f	2a	2dd
.	4e	.	.
=3	=3	=3	=3
1G	4d	2.g	1b-
.	4c	.	.
.	2d	.	.
.	.	4f	.
2A	2c#	2e	2a
2F	2A	2f	2cc
=4	=4	=4	=4
2G	2B-	4d	2b-
.	.	4e	.
2A	2c	4f	1a
.	.	4e	.
1B-	1d	4d	.
.	.	4c	.
.	.	2d	2g
=5	=5	=5	=5
2A	2c	2e	2a
2D	2d	2f	2a
2.B-	2.d	2g	2b-
.	.	[2f	2f
4A	4c	.	.
=6	=6	=6	=6
4G	4B-	2f]	2.g
4F	4A	.	.
2G	4B-	2e	.
.	4c	.	4a
1D	1d	2f	2.b-
.	.	2f	.
.	.	.	4a
=7	=7	=7	=7
2E-	2B-	2e-	2g
2C	2c	2e-	2g
2D	2A	2d	2f
[2E-	[2G	[2B-	[2e-
=8	=8	=8	=8
2E-]	2G]	4B-]	2e-]
.	.	4c	.
2BB-	4B-	2d	2f
.	4A	.	.
1C	4G	2.c	1e-
.	4F	.	.
.	2G	.	.
.	.	4B-	.
=9	=9	=9	=9
1D	1F#	4A	1d
.	.	4G	.
.	.	2A	.
2GG	2G	2B-	2d
[2D	[2A	[2d	[2f
=10	=10	=10	=10
2D]	2A]	2d]	2f]
2BB-	2B-	2d	2f
1E-	1G	2B-	1g
.	.	2c	.
=11	=11	=11	=11
1D	1A	1d	1f
[1G	2.B-	1d	[1b-
.	4c	.	.
=12	=12	=12	=12
2G]	1.d	2G	2b-]
2F	.	2A	2a
2F	.	2a	2a
2G	2d	2b-	[2dd
=13	=13	=13	=13
1A	2f	2a	2dd]
.	2e	[2a	2cc#
2AA	2e	4a]	2cc#
.	.	4g	.
2D	2d	2f	2dd
=14	=14	=14	=14
1G	2d	1g	1b-
.	2.d	.	.
2F#	.	2d	2a
.	4c	.	.
2G	4B-	2g	2g
.	4A	.	.
=15	=15	=15	=15
2.E-i	2G	2.g	2b-
.	2G	.	2cc
4D	.	4f	.
2C	2c	4e-i	2ee-i
.	.	4f	.
2BB-	2d	2g	2dd
=16	=16	=16	=16
1C	1e-	1g	1cc
2GG	2d	2g	2b-
2G	[2d	2b-	[2dd
=17	=17	=17	=17
2F#	2d]	2a	4dd]
.	.	.	4cc
2G	2d	4g	2b-
.	.	4f	.
1C	2.c	4e-i	1ee-i
.	.	4f	.
.	.	[2g	.
.	4B-	.	.
=18	=18	=18	=18
1D	4A	2g]	2.dd
.	4G	.	.
.	2A	2f#i	.
.	.	.	4cc
1GG	1G	1g	1bn
==	==	==	==
*-	*-	*-	*-
!!!CNT: Polish
!!!OCY: Poland
!!!LYR: Jan Kochanowski (1530-1584/08/22)
!!!GTL: Melodiae na Psałterz Polski
!!!EFL: 4/150
!!!PPR: Łazarz Andrysowicz
!!!PPP: Kraków
!!!PDT: 1580
!!!YEC: 2015 Marcin Konik
!!!ENC: Marcin Konik
!!!END: 2015/03/06
!!!EED: Marcin Konik
!!!EEV: 2015/03/06
!!!ONB: Translated from MusicXML and edited on 2015/03/06 by Marcin Konik
!!!CharacterEncoding: utf-8
!!muse2ps: i2I150v85,85,85,150Q16
!!title: @{OTL}, @{GTL}, ed. @{ENC}
